X: 20682
T: John's
R: jig
M: 6/8
K: Dmajor
fef dAF|GFG Beg|fef def|ecA A2g|
fef dAF|GFG Beg|fef gec|dAF D3:|
FEF Afd|GFG Bge|fef def|ecA ABA|
Adf GBd|FAd GFG|faf gec|dAF D3:|

